X:6
T:No.126 Jonny Ward's
M:4/4
L:1/8
C:highland
K:D
d2B>G d>G B>G|(3ABA F>D A,4|d2B>G d>G B>d|
[1g>b f>a e>g f>e:|[2g>b f>a e>g f>a||
e<A B>A e>g f>e|d2B>G d>G B>d|e>A B>A e>a f>f|
[1(3gag (3fgf e>g f>a:|[2(3gag (3fgf e>g f>e||
